icons/midnadark/mimetypes/32/application-x-pak.svg

<?xml version="1.0" encoding="UTF-8" standalone="no"?>
<!-- Created with Inkscape (http://www.inkscape.org/) -->

<svg
   xmlns:osb="http://www.openswatchbook.org/uri/2009/osb"
   xmlns:dc="http://purl.org/dc/elements/1.1/"
   xmlns:cc="http://creativecommons.org/ns#"
   xmlns:rdf="http://www.w3.org/1999/02/22-rdf-syntax-ns#"
   xmlns:svg="http://www.w3.org/2000/svg"
   xmlns="http://www.w3.org/2000/svg"
   xmlns:xlink="http://www.w3.org/1999/xlink"
   xmlns:sodipodi="http://sodipodi.sourceforge.net/DTD/sodipodi-0.dtd"
   xmlns:inkscape="http://www.inkscape.org/namespaces/inkscape"
   width="32"
   height="32"
   id="svg5453"
   version="1.1"
   inkscape:version="0.91 r13725"
   sodipodi:docname="application-x-pak.svg">
  <defs
     id="defs5455">
    <linearGradient
       inkscape:collect="always"
       xlink:href="#linearGradient4422"
       id="linearGradient4781"
       x1="451.68628"
       y1="556.78864"
       x2="451.3428"
       y2="528.78864"
       gradientUnits="userSpaceOnUse" />
    <linearGradient
       id="linearGradient4207"
       osb:paint="gradient">
      <stop
         style="stop-color:#3498db;stop-opacity:1;"
         offset="0"
         id="stop3371" />
      <stop
         style="stop-color:#3498db;stop-opacity:0;"
         offset="1"
         id="stop3373" />
    </linearGradient>
    <linearGradient
       id="linearGradient4422">
      <stop
         style="stop-color:#d1d7df;stop-opacity:1"
         offset="0"
         id="stop4424" />
      <stop
         style="stop-color:#e0e5e7;stop-opacity:1"
         offset="1"
         id="stop4426" />
    </linearGradient>
  </defs>
  <sodipodi:namedview
     id="base"
     pagecolor="#919191"
     bordercolor="#666666"
     borderopacity="1.0"
     inkscape:pageopacity="0"
     inkscape:pageshadow="2"
     inkscape:zoom="27.306782"
     inkscape:cx="5.1886237"
     inkscape:cy="15.058021"
     inkscape:document-units="px"
     inkscape:current-layer="layer1-1"
     showgrid="false"
     fit-margin-top="0"
     fit-margin-left="0"
     fit-margin-right="0"
     fit-margin-bottom="0"
     inkscape:window-width="1366"
     inkscape:window-height="633"
     inkscape:window-x="0"
     inkscape:window-y="33"
     inkscape:window-maximized="1"
     inkscape:showpageshadow="false"
     borderlayer="true"
     showguides="false"
     inkscape:guide-bbox="true"
     inkscape:object-nodes="true"
     inkscape:snap-bbox="true">
    <inkscape:grid
       type="xygrid"
       id="grid4063" />
    <sodipodi:guide
       position="17,5"
       orientation="0,28"
       id="guide4169" />
    <sodipodi:guide
       position="30.000012,2.0000264"
       orientation="-28,0"
       id="guide4171" />
    <sodipodi:guide
       position="30.000012,30.000026"
       orientation="0,-28"
       id="guide4173" />
    <sodipodi:guide
       position="2.0000117,30.000026"
       orientation="28,0"
       id="guide4181" />
    <sodipodi:guide
       position="16.000012,30.000026"
       orientation="0,-14"
       id="guide4187" />
    <sodipodi:guide
       position="5.0000117,30.000026"
       orientation="28,0"
       id="guide4143" />
    <sodipodi:guide
       position="5.0000117,2.0000264"
       orientation="0,22"
       id="guide4145" />
    <sodipodi:guide
       position="27.000012,2.0000264"
       orientation="-28,0"
       id="guide4147" />
    <sodipodi:guide
       position="27.000012,30.000026"
       orientation="0,-22"
       id="guide4149" />
    <sodipodi:guide
       position="27,30"
       orientation="0,-7"
       id="guide4155" />
    <sodipodi:guide
       position="27.00001,23"
       orientation="-7,-1e-05"
       id="guide4162" />
    <sodipodi:guide
       position="24,27"
       orientation="0,1"
       id="guide3378" />
  </sodipodi:namedview>
  <metadata
     id="metadata5458">
    <rdf:RDF>
      <cc:Work
         rdf:about="">
        <dc:format>image/svg+xml</dc:format>
        <dc:type
           rdf:resource="http://purl.org/dc/dcmitype/StillImage" />
        <dc:title />
      </cc:Work>
    </rdf:RDF>
  </metadata>
  <g
     inkscape:label="Capa 1"
     inkscape:groupmode="layer"
     id="layer1"
     transform="translate(-384.57143,-515.798)">
    <g
       transform="translate(392.57143,-514.5642)"
       id="layer1-7"
       inkscape:label="Capa 1"
       style="fill:#ffffff;fill-opacity:1" />
    <g
       id="g4240"
       transform="translate(341.79698,500.25245)">
      <g
         inkscape:transform-center-y="-9.4924686"
         inkscape:transform-center-x="5.4653607"
         inkscape:label="Capa 1"
         id="layer1-1"
         transform="translate(-392.98822,-511.27795)">
        <g
           id="layer1-3"
           inkscape:label="Capa 1"
           transform="translate(0.41988239,0.03484499)"
           style="stroke:#1f2a47;stroke-opacity:1">
          <rect
             style="opacity:1;fill:url(#linearGradient4781);fill-opacity:1;fill-rule:evenodd;stroke:#3d434a;stroke-width:0.3;stroke-linecap:round;stroke-linejoin:miter;stroke-miterlimit:4;stroke-dasharray:none;stroke-dashoffset:0;stroke-opacity:1"
             id="rect4266"
             width="22.410984"
             height="29.670881"
             x="440.13177"
             y="527.98877"
             ry="1" />
          <g
             id="g4186-3"
             transform="matrix(0.52109202,0,0,0.52109202,439.59162,528.97852)"
             style="stroke:none;stroke-opacity:1">
            <g
               transform="translate(-400.92463,-509.18113)"
               id="layer1-38"
               inkscape:label="Capa 1"
               inkscape:transform-center-x="5.4653607"
               inkscape:transform-center-y="-9.4924686"
               style="stroke:none;stroke-opacity:1">
              <g
                 transform="translate(0.41988239,0.03484499)"
                 inkscape:label="Capa 1"
                 id="layer1-3-6"
                 style="stroke:none;stroke-opacity:1">
                <g
                   inkscape:label="Capa 1"
                   id="layer1-2"
                   transform="matrix(1.0037077,0,0,1.0037077,11.267145,17.846026)"
                   style="stroke:none;stroke-opacity:1">
                  <g
                     transform="matrix(1.5263052,0,0,1.5263052,376.49864,-1040.1735)"
                     id="g4414-9"
                     style="stroke:none;stroke-opacity:1">
                    <g
                       id="g4180"
                       transform="matrix(1.1526351,0,0,1.1526351,-4.8344134,-156.43331)"
                       style="stroke:none;stroke-opacity:1">
                      <g
                         transform="matrix(0.56841663,0,0,0.56841663,10.426663,1005.5718)"
                         id="g4186-6"
                         style="stroke:none;stroke-opacity:1" />
                      <g
                         id="g4246"
                         transform="matrix(0.49019093,0,0,0.49019093,12.16007,518.1207)"
                         style="stroke:none;stroke-opacity:1">
                        <g
                           inkscape:label="Capa 1"
                           id="layer1-17"
                           transform="matrix(1.6928502,0,0,1.6928502,-655.34265,123.60432)"
                           style="stroke:none;stroke-opacity:1">
                          <g
                             transform="translate(392.57143,-514.5642)"
                             id="layer1-7-0"
                             inkscape:label="Capa 1"
                             style="fill:#ffffff;fill-opacity:1;stroke:none;stroke-opacity:1" />
                          <g
                             id="g4240-1"
                             transform="translate(341.79698,500.25245)"
                             style="stroke:none;stroke-opacity:1">
                            <g
                               transform="translate(-392.56834,-511.24311)"
                               inkscape:label="Capa 1"
                               id="layer1-3-0"
                               style="stroke:none;stroke-opacity:1">
                              <g
                                 transform="translate(382.34279,511.78866)"
                                 id="g4611"
                                 style="stroke:none;stroke-opacity:1">
                                <g
                                   transform="translate(1.7514779,-0.67379255)"
                                   id="g5046"
                                   style="stroke:none;stroke-opacity:1">
                                <g
                                   transform="translate(-3.9698942,4.8847507)"
                                   id="g5686"
                                   style="stroke:none;stroke-opacity:1">
                                <g
                                   transform="translate(-392.98822,-511.27795)"
                                   id="layer1-31"
                                   inkscape:label="Capa 1"
                                   inkscape:transform-center-x="5.4653607"
                                   inkscape:transform-center-y="-9.4924686"
                                   style="stroke:none;stroke-opacity:1" />
                                </g>
                                <g
                                   transform="translate(-2.1496533,3.4906341)"
                                   id="g6289"
                                   style="stroke:none;stroke-opacity:1">
                                <g
                                   transform="translate(-392.98822,-511.27795)"
                                   id="layer1-77"
                                   inkscape:label="Capa 1"
                                   inkscape:transform-center-x="5.4653607"
                                   inkscape:transform-center-y="-9.4924686"
                                   style="stroke:none;stroke-opacity:1" />
                                </g>
                                <g
                                   transform="translate(-36.24446,-2.6744666)"
                                   id="g5173"
                                   style="stroke:none;stroke-opacity:1">
                                <g
                                   transform="translate(-392.98822,-511.27795)"
                                   id="layer1-10"
                                   inkscape:label="Capa 1"
                                   inkscape:transform-center-x="5.4653607"
                                   inkscape:transform-center-y="-9.4924686"
                                   style="stroke:none;stroke-opacity:1">
                                <g
                                   transform="translate(0.41988239,0.03484499)"
                                   inkscape:label="Capa 1"
                                   id="layer1-3-5"
                                   style="stroke:none;stroke-opacity:1">
                                <g
                                   transform="matrix(0.6049833,0,0,0.6049833,215.58501,226.86152)"
                                   id="layer1-5-9"
                                   inkscape:label="Capa 1"
                                   style="stroke:none;stroke-opacity:1">
                                <g
                                   id="g4414-3"
                                   transform="matrix(1.5263052,0,0,1.5263052,376.49864,-1040.1735)"
                                   style="stroke:none;stroke-opacity:1">
                                <g
                                   transform="matrix(0.42549858,0,0,0.42549858,-116.82388,804.06163)"
                                   id="layer1-0"
                                   inkscape:label="Capa 1"
                                   style="stroke:none;stroke-opacity:1">
                                <path
                                   style="opacity:1;fill:#3d434a;fill-opacity:1;stroke:none;stroke-width:2.79999995;stroke-miterlimit:4;stroke-dasharray:none;stroke-opacity:1"
                                   d="M 11.099609 10 C 10.76721 10 10.5 10.26721 10.5 10.599609 L 10.5 21.400391 C 10.5 21.73279 10.76721 22 11.099609 22 L 20.699219 22 C 21.031618 22 21.300781 21.73279 21.300781 21.400391 L 21.300781 10.599609 C 21.300781 10.26721 21.031618 10 20.699219 10 L 11.099609 10 z M 15.587891 10.333984 L 16.255859 10.333984 C 16.403553 10.333984 16.521484 10.451916 16.521484 10.599609 L 16.521484 10.666016 C 16.521484 10.813709 16.403553 10.933594 16.255859 10.933594 L 15.587891 10.933594 C 15.440197 10.933594 15.322266 10.813709 15.322266 10.666016 L 15.322266 10.599609 C 15.322266 10.451916 15.440197 10.333984 15.587891 10.333984 z M 15.585938 11.201172 L 16.251953 11.201172 C 16.399646 11.201172 16.519531 11.321057 16.519531 11.46875 L 16.519531 11.535156 C 16.519531 11.68285 16.399646 11.800781 16.251953 11.800781 L 15.585938 11.800781 C 15.438244 11.800781 15.318359 11.68285 15.318359 11.535156 L 15.318359 11.46875 C 15.318359 11.321057 15.438244 11.201172 15.585938 11.201172 z M 15.578125 12.058594 L 16.244141 12.058594 C 16.391834 12.058594 16.511719 12.176525 16.511719 12.324219 L 16.511719 12.392578 C 16.511719 12.540271 16.391834 12.658203 16.244141 12.658203 L 15.578125 12.658203 C 15.430432 12.658203 15.310547 12.540271 15.310547 12.392578 L 15.310547 12.324219 C 15.310547 12.176525 15.430432 12.058594 15.578125 12.058594 z M 15.591797 12.951172 L 16.257812 12.951172 C 16.405506 12.951172 16.525391 13.069104 16.525391 13.216797 L 16.525391 13.285156 C 16.525391 13.43285 16.405506 13.550781 16.257812 13.550781 L 15.591797 13.550781 C 15.444104 13.550781 15.324219 13.43285 15.324219 13.285156 L 15.324219 13.216797 C 15.324219 13.069104 15.444104 12.951172 15.591797 12.951172 z M 15.591797 13.828125 L 16.257812 13.828125 C 16.405506 13.828125 16.525391 13.946057 16.525391 14.09375 L 16.525391 14.162109 C 16.525391 14.309803 16.405506 14.427734 16.257812 14.427734 L 15.591797 14.427734 C 15.444104 14.427734 15.324219 14.309803 15.324219 14.162109 L 15.324219 14.09375 C 15.324219 13.946057 15.444104 13.828125 15.591797 13.828125 z M 15.591797 14.724609 L 16.257812 14.724609 C 16.405506 14.724609 16.525391 14.844494 16.525391 14.992188 L 16.525391 15.058594 C 16.525391 15.206287 16.405506 15.326172 16.257812 15.326172 L 15.591797 15.326172 C 15.444104 15.326172 15.324219 15.206287 15.324219 15.058594 L 15.324219 14.992188 C 15.324219 14.844494 15.444104 14.724609 15.591797 14.724609 z M 15.644531 15.632812 L 16.173828 15.632812 C 16.278939 15.632812 16.363281 15.718727 16.363281 15.824219 L 16.363281 16.203125 L 16.658203 17.070312 C 16.740484 17.311861 16.701039 17.578957 16.552734 17.787109 C 16.404429 17.994881 16.162951 18.119141 15.908203 18.119141 C 15.653506 18.119141 15.413933 17.994881 15.265625 17.787109 C 15.11732 17.578957 15.077851 17.31205 15.160156 17.070312 L 15.455078 16.201172 L 15.455078 15.824219 C 15.455078 15.718748 15.53942 15.632812 15.644531 15.632812 z M 15.621094 16.902344 L 15.523438 17.193359 C 15.481167 17.318171 15.499681 17.457077 15.576172 17.564453 C 15.728797 17.778797 16.087633 17.778797 16.240234 17.564453 C 16.316716 17.457077 16.33721 17.317982 16.294922 17.193359 L 16.197266 16.902344 L 15.621094 16.902344 z "
                                   transform="matrix(3.3333308,0,0,3.3333308,355.57147,470.46472)"
                                   id="rect4319" />
                                <g
                                   transform="translate(-0.71741557,0.01714041)"
                                   inkscape:label="Capa 1"
                                   id="layer1-7-4"
                                   style="fill:#a1a9b2;fill-opacity:1;stroke:none;stroke-opacity:1" />
                                </g>
                                </g>
                                </g>
                                </g>
                                </g>
                                </g>
                                </g>
                              </g>
                            </g>
                          </g>
                        </g>
                      </g>
                    </g>
                  </g>
                  <g
                     transform="matrix(1.9119579,0,0,1.9119579,-429.53046,-496.89343)"
                     id="layer1-5"
                     inkscape:label="Capa 1"
                     style="stroke:none;stroke-opacity:1">
                    <g
                       style="fill:#ffffff;fill-opacity:1;stroke:none;stroke-opacity:1"
                       inkscape:label="Capa 1"
                       id="layer1-7-2"
                       transform="translate(392.57143,-514.5642)" />
                  </g>
                </g>
              </g>
            </g>
            <g
               style="stroke:none;stroke-opacity:1"
               transform="matrix(1.9190469,0,0,1.9190469,-816.18639,-989.63849)"
               id="layer1-14"
               inkscape:label="Capa 1">
              <g
                 style="fill:#ffffff;fill-opacity:1;stroke:none;stroke-opacity:1"
                 inkscape:label="Capa 1"
                 id="layer1-7-8"
                 transform="translate(392.57143,-514.5642)" />
              <g
                 transform="translate(341.79698,500.25245)"
                 id="g4240-0"
                 style="stroke:none;stroke-opacity:1">
                <g
                   transform="translate(-392.98822,-511.27795)"
                   id="layer1-1-9"
                   inkscape:label="Capa 1"
                   inkscape:transform-center-x="5.4653607"
                   inkscape:transform-center-y="-9.4924686"
                   style="stroke:none;stroke-opacity:1">
                  <g
                     transform="translate(0.41988239,0.03484499)"
                     inkscape:label="Capa 1"
                     id="layer1-3-4"
                     style="stroke:none;stroke-opacity:1">
                    <g
                       id="g5046-2"
                       transform="translate(384.09427,511.11487)"
                       style="stroke:none;stroke-opacity:1">
                      <g
                         id="g5686-7"
                         transform="translate(-3.9698942,4.8847507)"
                         style="stroke:none;stroke-opacity:1">
                        <g
                           inkscape:transform-center-y="-9.4924686"
                           inkscape:transform-center-x="5.4653607"
                           inkscape:label="Capa 1"
                           id="layer1-31-1"
                           transform="translate(-392.98822,-511.27795)"
                           style="stroke:none;stroke-opacity:1" />
                      </g>
                      <g
                         id="g6289-4"
                         transform="translate(-2.1496533,3.4906341)"
                         style="stroke:none;stroke-opacity:1">
                        <g
                           inkscape:transform-center-y="-9.4924686"
                           inkscape:transform-center-x="5.4653607"
                           inkscape:label="Capa 1"
                           id="layer1-77-2"
                           transform="translate(-392.98822,-511.27795)"
                           style="stroke:none;stroke-opacity:1" />
                      </g>
                      <g
                         id="g5173-1"
                         transform="translate(-36.24446,-2.6744666)"
                         style="stroke:none;stroke-opacity:1">
                        <g
                           inkscape:transform-center-y="-9.4924686"
                           inkscape:transform-center-x="5.4653607"
                           inkscape:label="Capa 1"
                           id="layer1-10-5"
                           transform="translate(-392.98822,-511.27795)"
                           style="stroke:none;stroke-opacity:1">
                          <g
                             id="layer1-3-5-3"
                             inkscape:label="Capa 1"
                             transform="translate(0.41988239,0.03484499)"
                             style="stroke:none;stroke-opacity:1">
                            <g
                               inkscape:label="Capa 1"
                               id="layer1-5-9-4"
                               transform="matrix(0.6049833,0,0,0.6049833,215.58501,226.86152)"
                               style="stroke:none;stroke-opacity:1">
                              <g
                                 transform="matrix(1.5263052,0,0,1.5263052,376.49864,-1040.1735)"
                                 id="g4414-3-2"
                                 style="stroke:none;stroke-opacity:1">
                                <g
                                   inkscape:label="Capa 1"
                                   id="layer1-0-4"
                                   transform="matrix(0.42549858,0,0,0.42549858,-116.82388,804.06163)"
                                   style="stroke:none;stroke-opacity:1" />
                              </g>
                            </g>
                          </g>
                        </g>
                      </g>
                    </g>
                  </g>
                </g>
              </g>
            </g>
          </g>
        </g>
      </g>
    </g>
  </g>
</svg>

<svg xmlns="http://www.w3.org/2000/svg" viewBox="0 0 32 32"><defs><linearGradient id="0" x1="451.69" y1="556.79" x2="451.34" y2="528.79" gradientUnits="userSpaceOnUse"><stop stop-color="#d1d7df"/><stop offset="1" stop-color="#e0e5e7"/></linearGradient></defs><g transform="translate(-435.34-526.79)" stroke="#1f2a47"><rect width="22.411" height="29.671" x="440.13" y="527.99" fill="url(#0)" fill-rule="evenodd" stroke="#3d434a" stroke-linecap="round" stroke-width=".3" rx="1"/><path d="m11.1 10c-.332 0-.6.267-.6.6v10.801c0 .332.267.6.6.6h9.6c.332 0 .602-.267.602-.6v-10.801c0-.332-.269-.6-.602-.6h-9.6m4.488.334h.668c.148 0 .266.118.266.266v.066c0 .148-.118.268-.266.268h-.668c-.148 0-.266-.12-.266-.268v-.066c0-.148.118-.266.266-.266m-.002.867h.666c.148 0 .268.12.268.268v.066c0 .148-.12.266-.268.266h-.666c-.148 0-.268-.118-.268-.266v-.066c0-.148.12-.268.268-.268m-.008.857h.666c.148 0 .268.118.268.266v.068c0 .148-.12.266-.268.266h-.666c-.148 0-.268-.118-.268-.266v-.068c0-.148.12-.266.268-.266m.014.893h.666c.148 0 .268.118.268.266v.068c0 .148-.12.266-.268.266h-.666c-.148 0-.268-.118-.268-.266v-.068c0-.148.12-.266.268-.266m0 .877h.666c.148 0 .268.118.268.266v.068c0 .148-.12.266-.268.266h-.666c-.148 0-.268-.118-.268-.266v-.068c0-.148.12-.266.268-.266m0 .896h.666c.148 0 .268.12.268.268v.066c0 .148-.12.268-.268.268h-.666c-.148 0-.268-.12-.268-.268v-.066c0-.148.12-.268.268-.268m.053.908h.529c.105 0 .189.086.189.191v.379l.295.867c.082.242.043.509-.105.717-.148.208-.39.332-.645.332-.255 0-.494-.124-.643-.332-.148-.208-.188-.475-.105-.717l.295-.869v-.377c0-.105.084-.191.189-.191m-.023 1.27l-.098.291c-.042.125-.024.264.053.371.153.214.511.214.664 0 .076-.107.097-.246.055-.371l-.098-.291h-.576" transform="matrix(.99999 0 0 .99999 435.35 526.8)" fill="#3d434a" stroke-width="2.8" stroke="none"/></g></svg>
